src/objects/tool/1F6E1.svg

<svg id="emoji" viewBox="0 0 72 72" xmlns="http://www.w3.org/2000/svg">
  <g id="grid">
    <path fill="#b3b3b3" d="M68,4V68H4V4H68m4-4H0V72H72V0Z"/>
    <path fill="none" stroke="#00a5ff" stroke-miterlimit="10" stroke-width="0.1" d="M12.923,10.9583H59.0769A1.9231,1.9231,0,0,1,61,12.8814V59.0352a1.9231,1.9231,0,0,1-1.9231,1.9231H12.9231A1.9231,1.9231,0,0,1,11,59.0352V12.8813A1.923,1.923,0,0,1,12.923,10.9583Z"/>
    <rect x="16" y="4" rx="2.2537" width="40" height="64" fill="none" stroke="#00a5ff" stroke-miterlimit="10" stroke-width="0.1"/>
    <rect x="16" y="4" rx="2.2537" width="40" height="64" transform="translate(72) rotate(90)" fill="none" stroke="#00a5ff" stroke-miterlimit="10" stroke-width="0.1"/>
    <circle cx="36" cy="36" r="29" fill="none" stroke="#00a5ff" stroke-miterlimit="10" stroke-width="0.1"/>
  </g>
  <g id="color">
    <path fill="#D0CFCE" stroke="none" d="M35.9899,10.9064c-11.0457,0-20,4.4773-20,10l0.0261,0.2749c2.9513,30.53,18.6744,39.0674,19.8983,39.6877 l0.0756,0.0374c0,0,17-8,20-40C56.5055,15.4078,47.0356,10.9064,35.9899,10.9064z M35.992,54.884l-0.0604-0.0299 c-0.978-0.4957-13.5423-7.318-15.9006-31.7145L20.01,22.9201c0-4.4133,7.1553-7.991,15.9819-7.991 c8.8265,0,16.3938,3.5969,15.9819,7.991C49.5766,48.4912,35.992,54.884,35.992,54.884z"/>
    <path fill="#EA5A47" stroke="none" d="M35,17.9064l3,4l-3,4l3,4l-3,4l3,4l-3,4l3,4l-3,4l1,5.2597c0,0-15-11-16-32c0,0,0-8,16-8L35,17.9064z"/>
    <path fill="#D22F27" stroke="none" d="M36,15.1661l-1,2.7403l3,4l-3,4l3,4l-3,4l3,4l-3,4l3,4l-3,4l1.002,4.9774 c0,0,13.8441-8.9583,15.9819-31.9638C51.9839,22.92,51.1505,15.9498,36,15.1661z"/>
  </g>
  <g id="hair"/>
  <g id="skin"/>
  <g id="skin-shadow"/>
  <g id="line">
    <path fill="none" stroke="#000000" stroke-linecap="round" stroke-linejoin="round" stroke-miterlimit="10" stroke-width="2" d="M35.9245,60.8691c-1.2239-0.6204-16.947-9.1579-19.8983-39.6878L16,20.9064c0-5.5228,8.9543-10,20-10s20.5155,4.5013,20,10 c-3,32-20,40-20,40L35.9245,60.8691z"/>
    <path fill="none" stroke="#000000" stroke-linecap="round" stroke-linejoin="round" stroke-miterlimit="10" stroke-width="2" d="M35.9417,54.854c-0.978-0.4958-13.5423-7.318-15.9006-31.7144L20.0201,22.92c0-4.4133,7.1553-7.991,15.9819-7.991 s16.3938,3.5969,15.9819,7.991C49.5866,48.4911,36.002,54.8838,36.002,54.8838L35.9417,54.854z"/>
  </g>
</svg>

<svg viewBox="0 0 72 72" xmlns="http://www.w3.org/2000/svg"><path fill="#b3b3b3" d="M68 4v64H4V4h64m4-4H0v72h72V0z"/><path fill="none" stroke="#00a5ff" stroke-miterlimit="10" stroke-width=".1" d="M12.923 10.958h46.154A1.923 1.923 0 0161 12.881v46.154a1.923 1.923 0 01-1.923 1.923H12.923A1.923 1.923 0 0111 59.035V12.881a1.923 1.923 0 011.923-1.923z"/><rect x="16" y="4" rx="2.254" width="40" height="64" fill="none" stroke="#00a5ff" stroke-miterlimit="10" stroke-width=".1"/><rect x="16" y="4" rx="2.254" width="40" height="64" transform="rotate(90 36 36)" fill="none" stroke="#00a5ff" stroke-miterlimit="10" stroke-width=".1"/><circle cx="36" cy="36" r="29" fill="none" stroke="#00a5ff" stroke-miterlimit="10" stroke-width=".1"/><g stroke-linecap="round" stroke-miterlimit="10" stroke-width="6" stroke="#fff" fill="none" stroke-linejoin="round"><path d="M35.925 60.87c-1.225-.622-16.947-9.16-19.899-39.69L16 20.906c0-5.522 8.954-10 20-10s20.515 4.502 20 10c-3 32-20 40-20 40l-.075-.037z"/><path d="M35.942 54.854c-.978-.496-13.543-7.318-15.9-31.714l-.022-.22c0-4.413 7.155-7.991 15.982-7.991s16.394 3.597 15.982 7.991c-2.397 25.571-15.982 31.964-15.982 31.964l-.06-.03z"/></g><path fill="#D0CFCE" d="M35.99 10.906c-11.046 0-20 4.478-20 10l.026.275C18.967 51.711 34.69 60.25 35.914 60.87l.076.037s17-8 20-40c.515-5.498-8.954-10-20-10zm.002 43.978l-.06-.03c-.978-.496-13.543-7.318-15.901-31.714l-.021-.22c0-4.413 7.155-7.99 15.982-7.99 8.826 0 16.394 3.596 15.982 7.99-2.397 25.571-15.982 31.964-15.982 31.964z"/><path fill="#EA5A47" d="M35 17.906l3 4-3 4 3 4-3 4 3 4-3 4 3 4-3 4 1 5.26s-15-11-16-32c0 0 0-8 16-8l-1 2.74z"/><path fill="#D22F27" d="M36 15.166l-1 2.74 3 4-3 4 3 4-3 4 3 4-3 4 3 4-3 4 1.002 4.978s13.844-8.958 15.982-31.964c0 0-.834-6.97-15.984-7.754z"/><g fill="none" stroke="#000" stroke-linecap="round" stroke-linejoin="round" stroke-miterlimit="10" stroke-width="2"><path d="M35.925 60.87c-1.225-.622-16.947-9.16-19.899-39.69L16 20.906c0-5.522 8.954-10 20-10s20.515 4.502 20 10c-3 32-20 40-20 40l-.075-.037z"/><path d="M35.942 54.854c-.978-.496-13.543-7.318-15.9-31.714l-.022-.22c0-4.413 7.155-7.991 15.982-7.991s16.394 3.597 15.982 7.991c-2.397 25.571-15.982 31.964-15.982 31.964l-.06-.03z"/></g></svg>
